src/16/actions/zoom-original.svg

<svg xmlns="http://www.w3.org/2000/svg" viewBox="0 0 16 16"><path d="M2 2v3h1V3h2V2H2zm9 0v1h2v2h1V2h-3zM4 4v8h8V4H4zm1 1h6v6H5V5zm-3 6v3h3v-1H3v-2H2zm11 0v2h-2v1h3v-3h-1z" fill="currentColor" color="#5d656b"/></svg>

<svg xmlns="http://www.w3.org/2000/svg" viewBox="0 0 16 16">
  <defs id="defs3051">
    <style type="text/css" id="current-color-scheme">
      .ColorScheme-Text {
        color:#5d656b;
      }
      </style>
  </defs>
 <path style="fill:currentColor;fill-opacity:1;stroke:none" 
       d="M 2 2 L 2 5 L 3 5 L 3 3 L 5 3 L 5 2 L 3 2 L 2 2 z M 11 2 L 11 3 L 13 3 L 13 5 L 14 5 L 14 2 L 13 2 L 11 2 z M 4 4 L 4 12 L 12 12 L 12 4 L 4 4 z M 5 5 L 11 5 L 11 11 L 5 11 L 5 5 z M 2 11 L 2 14 L 3 14 L 5 14 L 5 13 L 3 13 L 3 11 L 2 11 z M 13 11 L 13 13 L 11 13 L 11 14 L 14 14 L 14 13 L 14 11 L 13 11 z "
     class="ColorScheme-Text"
     />
</svg>
